images/twitter.svg

<svg width="26" height="21" viewBox="0 0 26 21" fill="none" xmlns="http://www.w3.org/2000/svg">
<path fill-rule="evenodd" clip-rule="evenodd" d="M17.1721 0.656045C16.688 0.760471 16.3934 0.860783 15.9736 1.06415C14.6058 1.72685 13.626 2.90536 13.2353 4.35797C13.0961 4.87533 13.0482 5.86324 13.1373 6.38006L13.1877 6.67271L12.614 6.63549C10.569 6.50274 8.32404 5.79262 6.41694 4.67512C5.36374 4.05793 4.60031 3.4659 3.56764 2.46529C2.46533 1.39729 2.56176 1.42216 2.27709 2.13221C1.79224 3.34143 1.75328 4.44403 2.15644 5.54507C2.47019 6.40201 3.13528 7.33952 3.80511 7.86899L4.15425 8.14499H3.96171C3.60414 8.14499 2.82461 7.95928 2.34536 7.75991L1.86907 7.56173V7.85587C1.86907 8.90628 2.44056 10.1804 3.30435 11.0559C3.94413 11.7043 4.5761 12.092 5.46435 12.3811L5.95601 12.5411L5.4268 12.6177C5.12123 12.6619 4.63368 12.6819 4.27323 12.6651C3.54035 12.6308 3.56014 12.5777 4.00092 13.397C4.48133 14.2901 5.27033 15.0561 6.17111 15.504C6.82834 15.8308 7.17275 15.9392 7.85807 16.0353L8.40301 16.1116L8.16284 16.2953C8.03076 16.3963 7.73607 16.5894 7.508 16.7244C5.72929 17.7776 3.74052 18.2833 1.66226 18.2108C0.748999 18.1789 0.748998 18.1803 1.65335 18.6516C4.74615 20.2634 8.0854 20.7808 11.5487 20.1848C16.7909 19.2826 20.9608 15.6605 22.6725 10.5225C23.1332 9.1397 23.3793 7.67892 23.3793 6.3277V5.53523L23.7327 5.27795C24.3961 4.79488 25.4189 3.73147 25.8662 3.0597L25.9762 2.89457L25.6884 3.01426C25.0647 3.27368 23.2442 3.73982 23.1628 3.66086C23.1495 3.64792 23.3357 3.49142 23.5766 3.31317C24.258 2.80892 24.9115 1.93964 25.1945 1.16118L25.275 0.940042L24.5268 1.28773C23.825 1.61395 22.9885 1.90922 22.3206 2.06655L22.03 2.13501L21.706 1.85078C21.0604 1.28457 20.2831 0.888037 19.4292 0.689383C18.8449 0.553467 17.7244 0.536947 17.1721 0.656045Z" fill="#F5F5F6"/>
</svg>

<svg width="26" height="21" fill="none" xmlns="http://www.w3.org/2000/svg"><path fill-rule="evenodd" clip-rule="evenodd" d="M17.172.656a4.691 4.691 0 00-1.198.408 5.104 5.104 0 00-2.739 3.294c-.139.517-.187 1.505-.098 2.022l.05.293-.573-.038c-2.045-.132-4.29-.842-6.197-1.96-1.053-.617-1.817-1.21-2.85-2.21-1.102-1.068-1.005-1.043-1.29-.333-.485 1.21-.524 2.312-.12 3.413.313.857.978 1.795 1.648 2.324l.35.276h-.193c-.358 0-1.137-.186-1.617-.385l-.476-.198v.294c0 1.05.572 2.324 1.435 3.2.64.648 1.272 1.036 2.16 1.325l.492.16-.53.077a7.034 7.034 0 01-1.153.047c-.733-.034-.713-.087-.272.732.48.893 1.27 1.66 2.17 2.107.657.327 1.002.435 1.687.531l.545.077-.24.183a8.381 8.381 0 01-.655.43 10.63 10.63 0 01-5.846 1.486c-.913-.032-.913-.03-.009.44 3.093 1.612 6.432 2.13 9.896 1.534 5.242-.902 9.412-4.524 11.123-9.662.461-1.383.707-2.844.707-4.195v-.793l.354-.257c.663-.483 1.686-1.547 2.133-2.218l.11-.165-.288.12c-.623.259-2.444.725-2.525.646-.014-.013.173-.17.414-.348.681-.504 1.334-1.373 1.617-2.152l.081-.221-.748.348c-.702.326-1.539.621-2.206.779l-.291.068-.324-.284A5.238 5.238 0 0019.429.689c-.584-.136-1.705-.152-2.257-.033z" fill="#F5F5F6"/></svg>
